X:47
T:Peacock's Feather
Z: id:dc-hornpipe-43
M:C|
L:1/8
K:D Major
DE|FEFD A3B|dfed Bdef|g2fg efdB|AFFD E2EA|!
FEFD A3B|dfed Bdef|g2fg efdB|Adfe d2:|!
df|afge f2ec|dfed Bdef|g2fg efdB|AFFD E2EA|!
FEFD A3B|dfed Bdef|g2fg efdB|Adfe d2:|!

